(Exported by FreeCAD)
(Post Processor: grbl_G81_post)
(Output Time:2020-11-11 19:11:33.165853)
(begin preamble)
G17 G90
G21
(begin operation: Default Tool)
(Path: Default Tool)
(Default Tool)
(begin toolchange)
(M6 T1.0)
M3 S9999.000
(finish operation: Default Tool)
(begin operation: Drilling)
(Path: Drilling)
(Drilling)
(Begin Drilling)
G0 Z2.000
G90
(G98)
(G83 X10.000 Y2.500 Z-11.000 F30.00 Q2.000 R2.000)
G0 X10.000 Y2.500
G1 Z0.000 F30.00
G0 Z2.000
G1 Z-2.000 F30.00
G0 Z2.000
G1 Z-4.000 F30.00
G0 Z2.000
G1 Z-6.000 F30.00
G0 Z2.000
G1 Z-8.000 F30.00
G0 Z2.000
G1 Z-10.000 F30.00
G0 Z2.000
G1 Z-11.000 F30.00
G0 Z2.000
(G83 X20.000 Y2.500 Z-11.000 F30.00 Q2.000 R2.000)
G0 X20.000 Y2.500
G1 Z0.000 F30.00
G0 Z2.000
G1 Z-2.000 F30.00
G0 Z2.000
G1 Z-4.000 F30.00
G0 Z2.000
G1 Z-6.000 F30.00
G0 Z2.000
G1 Z-8.000 F30.00
G0 Z2.000
G1 Z-10.000 F30.00
G0 Z2.000
G1 Z-11.000 F30.00
G0 Z2.000
(G83 X20.000 Y17.500 Z-11.000 F30.00 Q2.000 R2.000)
G0 X20.000 Y17.500
G1 Z0.000 F30.00
G0 Z2.000
G1 Z-2.000 F30.00
G0 Z2.000
G1 Z-4.000 F30.00
G0 Z2.000
G1 Z-6.000 F30.00
G0 Z2.000
G1 Z-8.000 F30.00
G0 Z2.000
G1 Z-10.000 F30.00
G0 Z2.000
G1 Z-11.000 F30.00
G0 Z2.000
(G83 X10.000 Y17.500 Z-11.000 F30.00 Q2.000 R2.000)
G0 X10.000 Y17.500
G1 Z0.000 F30.00
G0 Z2.000
G1 Z-2.000 F30.00
G0 Z2.000
G1 Z-4.000 F30.00
G0 Z2.000
G1 Z-6.000 F30.00
G0 Z2.000
G1 Z-8.000 F30.00
G0 Z2.000
G1 Z-10.000 F30.00
G0 Z2.000
G1 Z-11.000 F30.00
G0 Z2.000
(G80)
G0 Z2.000
(finish operation: Drilling)
(begin operation: Contour)
(Path: Contour)
(Contour)
(Compensated Tool Path. Diameter: 3.5)
G0 Z6.000
G0 X31.237 Y21.237
G0 Z2.000
G1 X31.237 Y21.237 Z0.500 F30.00
G2 X31.750 Y20.000 Z0.500 I-1.237 J-1.237 K0.000 F300.00
G1 X31.750 Y0.000 Z0.500 F300.00
G2 X30.000 Y-1.750 Z0.500 I-1.750 J0.000 K0.000 F300.00
G1 X0.000 Y-1.750 Z0.500 F300.00
G2 X-1.750 Y0.000 Z0.500 I0.000 J1.750 K0.000 F300.00
G1 X-1.750 Y20.000 Z0.500 F300.00
G2 X0.000 Y21.750 Z0.500 I1.750 J0.000 K0.000 F300.00
G1 X30.000 Y21.750 Z0.500 F300.00
G2 X31.237 Y21.237 Z0.500 I0.000 J-1.750 K0.000 F300.00
G1 X31.237 Y21.237 Z0.000 F30.00
G2 X31.750 Y20.000 Z0.000 I-1.237 J-1.237 K0.000 F300.00
G1 X31.750 Y0.000 Z0.000 F300.00
G2 X30.000 Y-1.750 Z0.000 I-1.750 J0.000 K0.000 F300.00
G1 X0.000 Y-1.750 Z0.000 F300.00
G2 X-1.750 Y0.000 Z0.000 I0.000 J1.750 K0.000 F300.00
G1 X-1.750 Y20.000 Z0.000 F300.00
G2 X0.000 Y21.750 Z0.000 I1.750 J0.000 K0.000 F300.00
G1 X30.000 Y21.750 Z0.000 F300.00
G2 X31.237 Y21.237 Z0.000 I0.000 J-1.750 K0.000 F300.00
G1 X31.237 Y21.237 Z-0.500 F30.00
G2 X31.750 Y20.000 Z-0.500 I-1.237 J-1.237 K0.000 F300.00
G1 X31.750 Y0.000 Z-0.500 F300.00
G2 X30.000 Y-1.750 Z-0.500 I-1.750 J0.000 K0.000 F300.00
G1 X0.000 Y-1.750 Z-0.500 F300.00
G2 X-1.750 Y0.000 Z-0.500 I0.000 J1.750 K0.000 F300.00
G1 X-1.750 Y20.000 Z-0.500 F300.00
G2 X0.000 Y21.750 Z-0.500 I1.750 J0.000 K0.000 F300.00
G1 X30.000 Y21.750 Z-0.500 F300.00
G2 X31.237 Y21.237 Z-0.500 I0.000 J-1.750 K0.000 F300.00
G1 X31.237 Y21.237 Z-1.000 F30.00
G2 X31.750 Y20.000 Z-1.000 I-1.237 J-1.237 K0.000 F300.00
G1 X31.750 Y0.000 Z-1.000 F300.00
G2 X30.000 Y-1.750 Z-1.000 I-1.750 J0.000 K0.000 F300.00
G1 X0.000 Y-1.750 Z-1.000 F300.00
G2 X-1.750 Y0.000 Z-1.000 I0.000 J1.750 K0.000 F300.00
G1 X-1.750 Y20.000 Z-1.000 F300.00
G2 X0.000 Y21.750 Z-1.000 I1.750 J0.000 K0.000 F300.00
G1 X30.000 Y21.750 Z-1.000 F300.00
G2 X31.237 Y21.237 Z-1.000 I0.000 J-1.750 K0.000 F300.00
G1 X31.237 Y21.237 Z-1.500 F30.00
G2 X31.750 Y20.000 Z-1.500 I-1.237 J-1.237 K0.000 F300.00
G1 X31.750 Y0.000 Z-1.500 F300.00
G2 X30.000 Y-1.750 Z-1.500 I-1.750 J0.000 K0.000 F300.00
G1 X0.000 Y-1.750 Z-1.500 F300.00
G2 X-1.750 Y0.000 Z-1.500 I0.000 J1.750 K0.000 F300.00
G1 X-1.750 Y20.000 Z-1.500 F300.00
G2 X0.000 Y21.750 Z-1.500 I1.750 J0.000 K0.000 F300.00
G1 X30.000 Y21.750 Z-1.500 F300.00
G2 X31.237 Y21.237 Z-1.500 I0.000 J-1.750 K0.000 F300.00
G1 X31.237 Y21.237 Z-2.000 F30.00
G2 X31.750 Y20.000 Z-2.000 I-1.237 J-1.237 K0.000 F300.00
G1 X31.750 Y0.000 Z-2.000 F300.00
G2 X30.000 Y-1.750 Z-2.000 I-1.750 J0.000 K0.000 F300.00
G1 X0.000 Y-1.750 Z-2.000 F300.00
G2 X-1.750 Y0.000 Z-2.000 I0.000 J1.750 K0.000 F300.00
G1 X-1.750 Y20.000 Z-2.000 F300.00
G2 X0.000 Y21.750 Z-2.000 I1.750 J0.000 K0.000 F300.00
G1 X30.000 Y21.750 Z-2.000 F300.00
G2 X31.237 Y21.237 Z-2.000 I0.000 J-1.750 K0.000 F300.00
G1 X31.237 Y21.237 Z-2.500 F30.00
G2 X31.750 Y20.000 Z-2.500 I-1.237 J-1.237 K0.000 F300.00
G1 X31.750 Y0.000 Z-2.500 F300.00
G2 X30.000 Y-1.750 Z-2.500 I-1.750 J0.000 K0.000 F300.00
G1 X0.000 Y-1.750 Z-2.500 F300.00
G2 X-1.750 Y0.000 Z-2.500 I0.000 J1.750 K0.000 F300.00
G1 X-1.750 Y20.000 Z-2.500 F300.00
G2 X0.000 Y21.750 Z-2.500 I1.750 J0.000 K0.000 F300.00
G1 X30.000 Y21.750 Z-2.500 F300.00
G2 X31.237 Y21.237 Z-2.500 I0.000 J-1.750 K0.000 F300.00
G1 X31.237 Y21.237 Z-3.000 F30.00
G2 X31.750 Y20.000 Z-3.000 I-1.237 J-1.237 K0.000 F300.00
G1 X31.750 Y0.000 Z-3.000 F300.00
G2 X30.000 Y-1.750 Z-3.000 I-1.750 J0.000 K0.000 F300.00
G1 X0.000 Y-1.750 Z-3.000 F300.00
G2 X-1.750 Y0.000 Z-3.000 I0.000 J1.750 K0.000 F300.00
G1 X-1.750 Y20.000 Z-3.000 F300.00
G2 X0.000 Y21.750 Z-3.000 I1.750 J0.000 K0.000 F300.00
G1 X30.000 Y21.750 Z-3.000 F300.00
G2 X31.237 Y21.237 Z-3.000 I0.000 J-1.750 K0.000 F300.00
G1 X31.237 Y21.237 Z-3.500 F30.00
G2 X31.750 Y20.000 Z-3.500 I-1.237 J-1.237 K0.000 F300.00
G1 X31.750 Y0.000 Z-3.500 F300.00
G2 X30.000 Y-1.750 Z-3.500 I-1.750 J0.000 K0.000 F300.00
G1 X0.000 Y-1.750 Z-3.500 F300.00
G2 X-1.750 Y0.000 Z-3.500 I0.000 J1.750 K0.000 F300.00
G1 X-1.750 Y20.000 Z-3.500 F300.00
G2 X0.000 Y21.750 Z-3.500 I1.750 J0.000 K0.000 F300.00
G1 X30.000 Y21.750 Z-3.500 F300.00
G2 X31.237 Y21.237 Z-3.500 I0.000 J-1.750 K0.000 F300.00
G1 X31.237 Y21.237 Z-4.000 F30.00
G2 X31.750 Y20.000 Z-4.000 I-1.237 J-1.237 K0.000 F300.00
G1 X31.750 Y0.000 Z-4.000 F300.00
G2 X30.000 Y-1.750 Z-4.000 I-1.750 J0.000 K0.000 F300.00
G1 X0.000 Y-1.750 Z-4.000 F300.00
G2 X-1.750 Y0.000 Z-4.000 I0.000 J1.750 K0.000 F300.00
G1 X-1.750 Y20.000 Z-4.000 F300.00
G2 X0.000 Y21.750 Z-4.000 I1.750 J0.000 K0.000 F300.00
G1 X30.000 Y21.750 Z-4.000 F300.00
G2 X31.237 Y21.237 Z-4.000 I0.000 J-1.750 K0.000 F300.00
G1 X31.237 Y21.237 Z-4.500 F30.00
G2 X31.750 Y20.000 Z-4.500 I-1.237 J-1.237 K0.000 F300.00
G1 X31.750 Y0.000 Z-4.500 F300.00
G2 X30.000 Y-1.750 Z-4.500 I-1.750 J0.000 K0.000 F300.00
G1 X0.000 Y-1.750 Z-4.500 F300.00
G2 X-1.750 Y0.000 Z-4.500 I0.000 J1.750 K0.000 F300.00
G1 X-1.750 Y20.000 Z-4.500 F300.00
G2 X0.000 Y21.750 Z-4.500 I1.750 J0.000 K0.000 F300.00
G1 X30.000 Y21.750 Z-4.500 F300.00
G2 X31.237 Y21.237 Z-4.500 I0.000 J-1.750 K0.000 F300.00
G1 X31.237 Y21.237 Z-5.000 F30.00
G2 X31.750 Y20.000 Z-5.000 I-1.237 J-1.237 K0.000 F300.00
G1 X31.750 Y0.000 Z-5.000 F300.00
G2 X30.000 Y-1.750 Z-5.000 I-1.750 J0.000 K0.000 F300.00
G1 X0.000 Y-1.750 Z-5.000 F300.00
G2 X-1.750 Y0.000 Z-5.000 I0.000 J1.750 K0.000 F300.00
G1 X-1.750 Y20.000 Z-5.000 F300.00
G2 X0.000 Y21.750 Z-5.000 I1.750 J0.000 K0.000 F300.00
G1 X30.000 Y21.750 Z-5.000 F300.00
G2 X31.237 Y21.237 Z-5.000 I0.000 J-1.750 K0.000 F300.00
G1 X31.237 Y21.237 Z-5.500 F30.00
G2 X31.750 Y20.000 Z-5.500 I-1.237 J-1.237 K0.000 F300.00
G1 X31.750 Y0.000 Z-5.500 F300.00
G2 X30.000 Y-1.750 Z-5.500 I-1.750 J0.000 K0.000 F300.00
G1 X0.000 Y-1.750 Z-5.500 F300.00
G2 X-1.750 Y0.000 Z-5.500 I0.000 J1.750 K0.000 F300.00
G1 X-1.750 Y20.000 Z-5.500 F300.00
G2 X0.000 Y21.750 Z-5.500 I1.750 J0.000 K0.000 F300.00
G1 X30.000 Y21.750 Z-5.500 F300.00
G2 X31.237 Y21.237 Z-5.500 I0.000 J-1.750 K0.000 F300.00
G1 X31.237 Y21.237 Z-6.000 F30.00
G2 X31.750 Y20.000 Z-6.000 I-1.237 J-1.237 K0.000 F300.00
G1 X31.750 Y0.000 Z-6.000 F300.00
G2 X30.000 Y-1.750 Z-6.000 I-1.750 J0.000 K0.000 F300.00
G1 X0.000 Y-1.750 Z-6.000 F300.00
G2 X-1.750 Y0.000 Z-6.000 I0.000 J1.750 K0.000 F300.00
G1 X-1.750 Y20.000 Z-6.000 F300.00
G2 X0.000 Y21.750 Z-6.000 I1.750 J0.000 K0.000 F300.00
G1 X30.000 Y21.750 Z-6.000 F300.00
G2 X31.237 Y21.237 Z-6.000 I0.000 J-1.750 K0.000 F300.00
G1 X31.237 Y21.237 Z-6.500 F30.00
G2 X31.750 Y20.000 Z-6.500 I-1.237 J-1.237 K0.000 F300.00
G1 X31.750 Y0.000 Z-6.500 F300.00
G2 X30.000 Y-1.750 Z-6.500 I-1.750 J0.000 K0.000 F300.00
G1 X0.000 Y-1.750 Z-6.500 F300.00
G2 X-1.750 Y0.000 Z-6.500 I0.000 J1.750 K0.000 F300.00
G1 X-1.750 Y20.000 Z-6.500 F300.00
G2 X0.000 Y21.750 Z-6.500 I1.750 J0.000 K0.000 F300.00
G1 X30.000 Y21.750 Z-6.500 F300.00
G2 X31.237 Y21.237 Z-6.500 I0.000 J-1.750 K0.000 F300.00
G1 X31.237 Y21.237 Z-7.000 F30.00
G2 X31.750 Y20.000 Z-7.000 I-1.237 J-1.237 K0.000 F300.00
G1 X31.750 Y0.000 Z-7.000 F300.00
G2 X30.000 Y-1.750 Z-7.000 I-1.750 J0.000 K0.000 F300.00
G1 X0.000 Y-1.750 Z-7.000 F300.00
G2 X-1.750 Y0.000 Z-7.000 I0.000 J1.750 K0.000 F300.00
G1 X-1.750 Y20.000 Z-7.000 F300.00
G2 X0.000 Y21.750 Z-7.000 I1.750 J0.000 K0.000 F300.00
G1 X30.000 Y21.750 Z-7.000 F300.00
G2 X31.237 Y21.237 Z-7.000 I0.000 J-1.750 K0.000 F300.00
G1 X31.237 Y21.237 Z-7.500 F30.00
G2 X31.750 Y20.000 Z-7.500 I-1.237 J-1.237 K0.000 F300.00
G1 X31.750 Y0.000 Z-7.500 F300.00
G2 X30.000 Y-1.750 Z-7.500 I-1.750 J0.000 K0.000 F300.00
G1 X0.000 Y-1.750 Z-7.500 F300.00
G2 X-1.750 Y0.000 Z-7.500 I0.000 J1.750 K0.000 F300.00
G1 X-1.750 Y20.000 Z-7.500 F300.00
G2 X0.000 Y21.750 Z-7.500 I1.750 J0.000 K0.000 F300.00
G1 X30.000 Y21.750 Z-7.500 F300.00
G2 X31.237 Y21.237 Z-7.500 I0.000 J-1.750 K0.000 F300.00
G1 X31.237 Y21.237 Z-8.000 F30.00
G2 X31.750 Y20.000 Z-8.000 I-1.237 J-1.237 K0.000 F300.00
G1 X31.750 Y0.000 Z-8.000 F300.00
G2 X30.000 Y-1.750 Z-8.000 I-1.750 J0.000 K0.000 F300.00
G1 X0.000 Y-1.750 Z-8.000 F300.00
G2 X-1.750 Y0.000 Z-8.000 I0.000 J1.750 K0.000 F300.00
G1 X-1.750 Y20.000 Z-8.000 F300.00
G2 X0.000 Y21.750 Z-8.000 I1.750 J0.000 K0.000 F300.00
G1 X30.000 Y21.750 Z-8.000 F300.00
G2 X31.237 Y21.237 Z-8.000 I0.000 J-1.750 K0.000 F300.00
G1 X31.237 Y21.237 Z-8.500 F30.00
G2 X31.750 Y20.000 Z-8.500 I-1.237 J-1.237 K0.000 F300.00
G1 X31.750 Y0.000 Z-8.500 F300.00
G2 X30.000 Y-1.750 Z-8.500 I-1.750 J0.000 K0.000 F300.00
G1 X0.000 Y-1.750 Z-8.500 F300.00
G2 X-1.750 Y0.000 Z-8.500 I0.000 J1.750 K0.000 F300.00
G1 X-1.750 Y20.000 Z-8.500 F300.00
G2 X0.000 Y21.750 Z-8.500 I1.750 J0.000 K0.000 F300.00
G1 X30.000 Y21.750 Z-8.500 F300.00
G2 X31.237 Y21.237 Z-8.500 I0.000 J-1.750 K0.000 F300.00
G1 X31.237 Y21.237 Z-9.000 F30.00
G2 X31.750 Y20.000 Z-9.000 I-1.237 J-1.237 K0.000 F300.00
G1 X31.750 Y0.000 Z-9.000 F300.00
G2 X30.000 Y-1.750 Z-9.000 I-1.750 J0.000 K0.000 F300.00
G1 X0.000 Y-1.750 Z-9.000 F300.00
G2 X-1.750 Y0.000 Z-9.000 I0.000 J1.750 K0.000 F300.00
G1 X-1.750 Y20.000 Z-9.000 F300.00
G2 X0.000 Y21.750 Z-9.000 I1.750 J0.000 K0.000 F300.00
G1 X30.000 Y21.750 Z-9.000 F300.00
G2 X31.237 Y21.237 Z-9.000 I0.000 J-1.750 K0.000 F300.00
G1 X31.237 Y21.237 Z-9.500 F30.00
G2 X31.750 Y20.000 Z-9.500 I-1.237 J-1.237 K0.000 F300.00
G1 X31.750 Y0.000 Z-9.500 F300.00
G2 X30.000 Y-1.750 Z-9.500 I-1.750 J0.000 K0.000 F300.00
G1 X0.000 Y-1.750 Z-9.500 F300.00
G2 X-1.750 Y0.000 Z-9.500 I0.000 J1.750 K0.000 F300.00
G1 X-1.750 Y20.000 Z-9.500 F300.00
G2 X0.000 Y21.750 Z-9.500 I1.750 J0.000 K0.000 F300.00
G1 X30.000 Y21.750 Z-9.500 F300.00
G2 X31.237 Y21.237 Z-9.500 I0.000 J-1.750 K0.000 F300.00
G1 X31.237 Y21.237 Z-10.000 F30.00
G2 X31.750 Y20.000 Z-10.000 I-1.237 J-1.237 K0.000 F300.00
G1 X31.750 Y0.000 Z-10.000 F300.00
G2 X30.000 Y-1.750 Z-10.000 I-1.750 J0.000 K0.000 F300.00
G1 X0.000 Y-1.750 Z-10.000 F300.00
G2 X-1.750 Y0.000 Z-10.000 I0.000 J1.750 K0.000 F300.00
G1 X-1.750 Y20.000 Z-10.000 F300.00
G2 X0.000 Y21.750 Z-10.000 I1.750 J0.000 K0.000 F300.00
G1 X30.000 Y21.750 Z-10.000 F300.00
G2 X31.237 Y21.237 Z-10.000 I0.000 J-1.750 K0.000 F300.00
G1 X31.237 Y21.237 Z-10.500 F30.00
G2 X31.750 Y20.000 Z-10.500 I-1.237 J-1.237 K0.000 F300.00
G1 X31.750 Y0.000 Z-10.500 F300.00
G2 X30.000 Y-1.750 Z-10.500 I-1.750 J0.000 K0.000 F300.00
G1 X0.000 Y-1.750 Z-10.500 F300.00
G2 X-1.750 Y0.000 Z-10.500 I0.000 J1.750 K0.000 F300.00
G1 X-1.750 Y20.000 Z-10.500 F300.00
G2 X0.000 Y21.750 Z-10.500 I1.750 J0.000 K0.000 F300.00
G1 X30.000 Y21.750 Z-10.500 F300.00
G2 X31.237 Y21.237 Z-10.500 I0.000 J-1.750 K0.000 F300.00
G1 X31.237 Y21.237 Z-11.000 F30.00
G2 X31.750 Y20.000 Z-11.000 I-1.237 J-1.237 K0.000 F300.00
G1 X31.750 Y0.000 Z-11.000 F300.00
G2 X30.000 Y-1.750 Z-11.000 I-1.750 J0.000 K0.000 F300.00
G1 X0.000 Y-1.750 Z-11.000 F300.00
G2 X-1.750 Y0.000 Z-11.000 I0.000 J1.750 K0.000 F300.00
G1 X-1.750 Y20.000 Z-11.000 F300.00
G2 X0.000 Y21.750 Z-11.000 I1.750 J0.000 K0.000 F300.00
G1 X30.000 Y21.750 Z-11.000 F300.00
G2 X31.237 Y21.237 Z-11.000 I0.000 J-1.750 K0.000 F300.00
G1 X31.237 Y21.237 Z-11.500 F30.00
G2 X31.750 Y20.000 Z-11.500 I-1.237 J-1.237 K0.000 F300.00
G1 X31.750 Y0.000 Z-11.500 F300.00
G2 X30.000 Y-1.750 Z-11.500 I-1.750 J0.000 K0.000 F300.00
G1 X0.000 Y-1.750 Z-11.500 F300.00
G2 X-1.750 Y0.000 Z-11.500 I0.000 J1.750 K0.000 F300.00
G1 X-1.750 Y20.000 Z-11.500 F300.00
G2 X0.000 Y21.750 Z-11.500 I1.750 J0.000 K0.000 F300.00
G1 X30.000 Y21.750 Z-11.500 F300.00
G2 X31.237 Y21.237 Z-11.500 I0.000 J-1.750 K0.000 F300.00
G0 Z6.000
(finish operation: Contour)
(begin postamble)
M5
G17 G90
M2
