(Exported by FreeCAD)
(Post Processor: grbl_MIHO_post)
(Output Time:2021-05-02 21:21:05.544636)
(begin preamble)
G17 G90
G21
(begin operation: Fixture)
(Path: Fixture)
G54
(finish operation: Fixture)
(begin operation: Profile)
(Path: Profile)
(inactive operation)
(finish operation: Profile)
(begin operation: Drilling)
(Path: Drilling)
(inactive operation)
(finish operation: Drilling)
(begin operation: TC: 3mm_endmill)
(Path: TC: 3mm_endmill)
(TC: 3mm_endmill)
(begin toolchange)
(M6 T1.0)
M3 S9000.000
(finish operation: TC: 3mm_endmill)
(begin operation: Helix)
(Path: Helix)
(Helix)
(helix cut operation)
G0 Z6.000
G0 X63.200 Y20.000
G0 Z4.000
G1 Z1.000 F30.00
G2 X61.000 Y20.000 Z0.500 I-1.100 J0.000 F300.00
G2 X63.200 Y20.000 Z0.000 I1.100 J0.000 F300.00
G2 X61.000 Y20.000 Z-0.500 I-1.100 J0.000 F300.00
G2 X63.200 Y20.000 Z-1.000 I1.100 J0.000 F300.00
G2 X61.000 Y20.000 Z-1.500 I-1.100 J0.000 F300.00
G2 X63.200 Y20.000 Z-2.000 I1.100 J0.000 F300.00
G2 X61.000 Y20.000 Z-2.500 I-1.100 J0.000 F300.00
G2 X63.200 Y20.000 Z-3.000 I1.100 J0.000 F300.00
G2 X61.000 Y20.000 Z-3.000 I-1.100 J0.000 F300.00
G2 X63.200 Y20.000 Z-3.000 I1.100 J0.000 F300.00
G0 Z4.000
G0 X63.200 Y41.000
G0 Z4.000
G1 Z1.000 F30.00
G2 X61.000 Y41.000 Z0.500 I-1.100 J0.000 F300.00
G2 X63.200 Y41.000 Z0.000 I1.100 J0.000 F300.00
G2 X61.000 Y41.000 Z-0.500 I-1.100 J0.000 F300.00
G2 X63.200 Y41.000 Z-1.000 I1.100 J0.000 F300.00
G2 X61.000 Y41.000 Z-1.500 I-1.100 J0.000 F300.00
G2 X63.200 Y41.000 Z-2.000 I1.100 J0.000 F300.00
G2 X61.000 Y41.000 Z-2.500 I-1.100 J0.000 F300.00
G2 X63.200 Y41.000 Z-3.000 I1.100 J0.000 F300.00
G2 X61.000 Y41.000 Z-3.000 I-1.100 J0.000 F300.00
G2 X63.200 Y41.000 Z-3.000 I1.100 J0.000 F300.00
G0 Z4.000
G0 X63.200 Y59.000
G0 Z4.000
G1 Z1.000 F30.00
G2 X61.000 Y59.000 Z0.500 I-1.100 J0.000 F300.00
G2 X63.200 Y59.000 Z0.000 I1.100 J0.000 F300.00
G2 X61.000 Y59.000 Z-0.500 I-1.100 J0.000 F300.00
G2 X63.200 Y59.000 Z-1.000 I1.100 J0.000 F300.00
G2 X61.000 Y59.000 Z-1.500 I-1.100 J0.000 F300.00
G2 X63.200 Y59.000 Z-2.000 I1.100 J0.000 F300.00
G2 X61.000 Y59.000 Z-2.500 I-1.100 J0.000 F300.00
G2 X63.200 Y59.000 Z-3.000 I1.100 J0.000 F300.00
G2 X61.000 Y59.000 Z-3.000 I-1.100 J0.000 F300.00
G2 X63.200 Y59.000 Z-3.000 I1.100 J0.000 F300.00
G0 Z4.000
G0 X63.200 Y80.000
G0 Z4.000
G1 Z1.000 F30.00
G2 X61.000 Y80.000 Z0.500 I-1.100 J0.000 F300.00
G2 X63.200 Y80.000 Z0.000 I1.100 J0.000 F300.00
G2 X61.000 Y80.000 Z-0.500 I-1.100 J0.000 F300.00
G2 X63.200 Y80.000 Z-1.000 I1.100 J0.000 F300.00
G2 X61.000 Y80.000 Z-1.500 I-1.100 J0.000 F300.00
G2 X63.200 Y80.000 Z-2.000 I1.100 J0.000 F300.00
G2 X61.000 Y80.000 Z-2.500 I-1.100 J0.000 F300.00
G2 X63.200 Y80.000 Z-3.000 I1.100 J0.000 F300.00
G2 X61.000 Y80.000 Z-3.000 I-1.100 J0.000 F300.00
G2 X63.200 Y80.000 Z-3.000 I1.100 J0.000 F300.00
G0 Z4.000
G0 X90.700 Y80.000
G0 Z4.000
G1 Z1.000 F30.00
G2 X88.500 Y80.000 Z0.500 I-1.100 J0.000 F300.00
G2 X90.700 Y80.000 Z0.000 I1.100 J0.000 F300.00
G2 X88.500 Y80.000 Z-0.500 I-1.100 J0.000 F300.00
G2 X90.700 Y80.000 Z-1.000 I1.100 J0.000 F300.00
G2 X88.500 Y80.000 Z-1.500 I-1.100 J0.000 F300.00
G2 X90.700 Y80.000 Z-2.000 I1.100 J0.000 F300.00
G2 X88.500 Y80.000 Z-2.500 I-1.100 J0.000 F300.00
G2 X90.700 Y80.000 Z-3.000 I1.100 J0.000 F300.00
G2 X88.500 Y80.000 Z-3.000 I-1.100 J0.000 F300.00
G2 X90.700 Y80.000 Z-3.000 I1.100 J0.000 F300.00
G0 Z4.000
G0 X90.700 Y59.000
G0 Z4.000
G1 Z1.000 F30.00
G2 X88.500 Y59.000 Z0.500 I-1.100 J0.000 F300.00
G2 X90.700 Y59.000 Z0.000 I1.100 J0.000 F300.00
G2 X88.500 Y59.000 Z-0.500 I-1.100 J0.000 F300.00
G2 X90.700 Y59.000 Z-1.000 I1.100 J0.000 F300.00
G2 X88.500 Y59.000 Z-1.500 I-1.100 J0.000 F300.00
G2 X90.700 Y59.000 Z-2.000 I1.100 J0.000 F300.00
G2 X88.500 Y59.000 Z-2.500 I-1.100 J0.000 F300.00
G2 X90.700 Y59.000 Z-3.000 I1.100 J0.000 F300.00
G2 X88.500 Y59.000 Z-3.000 I-1.100 J0.000 F300.00
G2 X90.700 Y59.000 Z-3.000 I1.100 J0.000 F300.00
G0 Z4.000
G0 X90.700 Y41.000
G0 Z4.000
G1 Z1.000 F30.00
G2 X88.500 Y41.000 Z0.500 I-1.100 J0.000 F300.00
G2 X90.700 Y41.000 Z0.000 I1.100 J0.000 F300.00
G2 X88.500 Y41.000 Z-0.500 I-1.100 J0.000 F300.00
G2 X90.700 Y41.000 Z-1.000 I1.100 J0.000 F300.00
G2 X88.500 Y41.000 Z-1.500 I-1.100 J0.000 F300.00
G2 X90.700 Y41.000 Z-2.000 I1.100 J0.000 F300.00
G2 X88.500 Y41.000 Z-2.500 I-1.100 J0.000 F300.00
G2 X90.700 Y41.000 Z-3.000 I1.100 J0.000 F300.00
G2 X88.500 Y41.000 Z-3.000 I-1.100 J0.000 F300.00
G2 X90.700 Y41.000 Z-3.000 I1.100 J0.000 F300.00
G0 Z4.000
G0 X90.700 Y20.000
G0 Z4.000
G1 Z1.000 F30.00
G2 X88.500 Y20.000 Z0.500 I-1.100 J0.000 F300.00
G2 X90.700 Y20.000 Z0.000 I1.100 J0.000 F300.00
G2 X88.500 Y20.000 Z-0.500 I-1.100 J0.000 F300.00
G2 X90.700 Y20.000 Z-1.000 I1.100 J0.000 F300.00
G2 X88.500 Y20.000 Z-1.500 I-1.100 J0.000 F300.00
G2 X90.700 Y20.000 Z-2.000 I1.100 J0.000 F300.00
G2 X88.500 Y20.000 Z-2.500 I-1.100 J0.000 F300.00
G2 X90.700 Y20.000 Z-3.000 I1.100 J0.000 F300.00
G2 X88.500 Y20.000 Z-3.000 I-1.100 J0.000 F300.00
G2 X90.700 Y20.000 Z-3.000 I1.100 J0.000 F300.00
G0 Z4.000
G0 X135.700 Y20.000
G0 Z4.000
G1 Z1.000 F30.00
G2 X133.500 Y20.000 Z0.500 I-1.100 J0.000 F300.00
G2 X135.700 Y20.000 Z0.000 I1.100 J0.000 F300.00
G2 X133.500 Y20.000 Z-0.500 I-1.100 J0.000 F300.00
G2 X135.700 Y20.000 Z-1.000 I1.100 J0.000 F300.00
G2 X133.500 Y20.000 Z-1.500 I-1.100 J0.000 F300.00
G2 X135.700 Y20.000 Z-2.000 I1.100 J0.000 F300.00
G2 X133.500 Y20.000 Z-2.500 I-1.100 J0.000 F300.00
G2 X135.700 Y20.000 Z-3.000 I1.100 J0.000 F300.00
G2 X133.500 Y20.000 Z-3.000 I-1.100 J0.000 F300.00
G2 X135.700 Y20.000 Z-3.000 I1.100 J0.000 F300.00
G0 Z4.000
G0 X135.700 Y41.000
G0 Z4.000
G1 Z1.000 F30.00
G2 X133.500 Y41.000 Z0.500 I-1.100 J0.000 F300.00
G2 X135.700 Y41.000 Z0.000 I1.100 J0.000 F300.00
G2 X133.500 Y41.000 Z-0.500 I-1.100 J0.000 F300.00
G2 X135.700 Y41.000 Z-1.000 I1.100 J0.000 F300.00
G2 X133.500 Y41.000 Z-1.500 I-1.100 J0.000 F300.00
G2 X135.700 Y41.000 Z-2.000 I1.100 J0.000 F300.00
G2 X133.500 Y41.000 Z-2.500 I-1.100 J0.000 F300.00
G2 X135.700 Y41.000 Z-3.000 I1.100 J0.000 F300.00
G2 X133.500 Y41.000 Z-3.000 I-1.100 J0.000 F300.00
G2 X135.700 Y41.000 Z-3.000 I1.100 J0.000 F300.00
G0 Z4.000
G0 X135.700 Y59.000
G0 Z4.000
G1 Z1.000 F30.00
G2 X133.500 Y59.000 Z0.500 I-1.100 J0.000 F300.00
G2 X135.700 Y59.000 Z0.000 I1.100 J0.000 F300.00
G2 X133.500 Y59.000 Z-0.500 I-1.100 J0.000 F300.00
G2 X135.700 Y59.000 Z-1.000 I1.100 J0.000 F300.00
G2 X133.500 Y59.000 Z-1.500 I-1.100 J0.000 F300.00
G2 X135.700 Y59.000 Z-2.000 I1.100 J0.000 F300.00
G2 X133.500 Y59.000 Z-2.500 I-1.100 J0.000 F300.00
G2 X135.700 Y59.000 Z-3.000 I1.100 J0.000 F300.00
G2 X133.500 Y59.000 Z-3.000 I-1.100 J0.000 F300.00
G2 X135.700 Y59.000 Z-3.000 I1.100 J0.000 F300.00
G0 Z4.000
G0 X135.700 Y80.000
G0 Z4.000
G1 Z1.000 F30.00
G2 X133.500 Y80.000 Z0.500 I-1.100 J0.000 F300.00
G2 X135.700 Y80.000 Z0.000 I1.100 J0.000 F300.00
G2 X133.500 Y80.000 Z-0.500 I-1.100 J0.000 F300.00
G2 X135.700 Y80.000 Z-1.000 I1.100 J0.000 F300.00
G2 X133.500 Y80.000 Z-1.500 I-1.100 J0.000 F300.00
G2 X135.700 Y80.000 Z-2.000 I1.100 J0.000 F300.00
G2 X133.500 Y80.000 Z-2.500 I-1.100 J0.000 F300.00
G2 X135.700 Y80.000 Z-3.000 I1.100 J0.000 F300.00
G2 X133.500 Y80.000 Z-3.000 I-1.100 J0.000 F300.00
G2 X135.700 Y80.000 Z-3.000 I1.100 J0.000 F300.00
G0 Z4.000
G0 X163.200 Y80.000
G0 Z4.000
G1 Z1.000 F30.00
G2 X161.000 Y80.000 Z0.500 I-1.100 J0.000 F300.00
G2 X163.200 Y80.000 Z0.000 I1.100 J0.000 F300.00
G2 X161.000 Y80.000 Z-0.500 I-1.100 J0.000 F300.00
G2 X163.200 Y80.000 Z-1.000 I1.100 J0.000 F300.00
G2 X161.000 Y80.000 Z-1.500 I-1.100 J0.000 F300.00
G2 X163.200 Y80.000 Z-2.000 I1.100 J0.000 F300.00
G2 X161.000 Y80.000 Z-2.500 I-1.100 J0.000 F300.00
G2 X163.200 Y80.000 Z-3.000 I1.100 J0.000 F300.00
G2 X161.000 Y80.000 Z-3.000 I-1.100 J0.000 F300.00
G2 X163.200 Y80.000 Z-3.000 I1.100 J0.000 F300.00
G0 Z4.000
G0 X163.200 Y59.000
G0 Z4.000
G1 Z1.000 F30.00
G2 X161.000 Y59.000 Z0.500 I-1.100 J0.000 F300.00
G2 X163.200 Y59.000 Z0.000 I1.100 J0.000 F300.00
G2 X161.000 Y59.000 Z-0.500 I-1.100 J0.000 F300.00
G2 X163.200 Y59.000 Z-1.000 I1.100 J0.000 F300.00
G2 X161.000 Y59.000 Z-1.500 I-1.100 J0.000 F300.00
G2 X163.200 Y59.000 Z-2.000 I1.100 J0.000 F300.00
G2 X161.000 Y59.000 Z-2.500 I-1.100 J0.000 F300.00
G2 X163.200 Y59.000 Z-3.000 I1.100 J0.000 F300.00
G2 X161.000 Y59.000 Z-3.000 I-1.100 J0.000 F300.00
G2 X163.200 Y59.000 Z-3.000 I1.100 J0.000 F300.00
G0 Z4.000
G0 X163.200 Y41.000
G0 Z4.000
G1 Z1.000 F30.00
G2 X161.000 Y41.000 Z0.500 I-1.100 J0.000 F300.00
G2 X163.200 Y41.000 Z0.000 I1.100 J0.000 F300.00
G2 X161.000 Y41.000 Z-0.500 I-1.100 J0.000 F300.00
G2 X163.200 Y41.000 Z-1.000 I1.100 J0.000 F300.00
G2 X161.000 Y41.000 Z-1.500 I-1.100 J0.000 F300.00
G2 X163.200 Y41.000 Z-2.000 I1.100 J0.000 F300.00
G2 X161.000 Y41.000 Z-2.500 I-1.100 J0.000 F300.00
G2 X163.200 Y41.000 Z-3.000 I1.100 J0.000 F300.00
G2 X161.000 Y41.000 Z-3.000 I-1.100 J0.000 F300.00
G2 X163.200 Y41.000 Z-3.000 I1.100 J0.000 F300.00
G0 Z4.000
G0 X163.200 Y20.000
G0 Z4.000
G1 Z1.000 F30.00
G2 X161.000 Y20.000 Z0.500 I-1.100 J0.000 F300.00
G2 X163.200 Y20.000 Z0.000 I1.100 J0.000 F300.00
G2 X161.000 Y20.000 Z-0.500 I-1.100 J0.000 F300.00
G2 X163.200 Y20.000 Z-1.000 I1.100 J0.000 F300.00
G2 X161.000 Y20.000 Z-1.500 I-1.100 J0.000 F300.00
G2 X163.200 Y20.000 Z-2.000 I1.100 J0.000 F300.00
G2 X161.000 Y20.000 Z-2.500 I-1.100 J0.000 F300.00
G2 X163.200 Y20.000 Z-3.000 I1.100 J0.000 F300.00
G2 X161.000 Y20.000 Z-3.000 I-1.100 J0.000 F300.00
G2 X163.200 Y20.000 Z-3.000 I1.100 J0.000 F300.00
G0 Z4.000
G0 Z6.000
(finish operation: Helix)
(begin postamble)
M5
G17 G90
M2
