(Exported by FreeCAD)
(Post Processor: grbl_MIHO_post)
(Output Time:2021-05-03 18:41:47.459924)
(begin preamble)
G17 G90
G21
(begin operation: Fixture)
(Path: Fixture)
G54
(finish operation: Fixture)
(begin operation: TC: 3mm_endmill)
(Path: TC: 3mm_endmill)
(TC: 3mm_endmill)
(begin toolchange)
(M6 T1.0)
M3 S9000.000
(finish operation: TC: 3mm_endmill)
(begin operation: Profile)
(Path: Profile)
(Profile)
(Compensated Tool Path. Diameter: 3.0)
G0 Z6.000
G0 X181.061 Y101.061
G0 Z4.000
G1 X181.061 Y101.061 Z0.000 F30.00
G2 X181.500 Y100.000 Z0.000 I-1.061 J-1.061 K0.000 F300.00
G1 X181.500 Y0.000 Z0.000 F300.00
G2 X180.000 Y-1.500 Z0.000 I-1.500 J0.000 K0.000 F300.00
G1 X0.000 Y-1.500 Z0.000 F300.00
G2 X-1.500 Y0.000 Z0.000 I0.000 J1.500 K0.000 F300.00
G1 X-1.500 Y100.000 Z0.000 F300.00
G2 X0.000 Y101.500 Z0.000 I1.500 J-0.000 K0.000 F300.00
G1 X180.000 Y101.500 Z0.000 F300.00
G2 X181.061 Y101.061 Z0.000 I-0.000 J-1.500 K0.000 F300.00
G1 X181.061 Y101.061 Z-1.000 F30.00
G2 X181.500 Y100.000 Z-1.000 I-1.061 J-1.061 K0.000 F300.00
G1 X181.500 Y0.000 Z-1.000 F300.00
G2 X180.000 Y-1.500 Z-1.000 I-1.500 J0.000 K0.000 F300.00
G1 X0.000 Y-1.500 Z-1.000 F300.00
G2 X-1.500 Y0.000 Z-1.000 I0.000 J1.500 K0.000 F300.00
G1 X-1.500 Y100.000 Z-1.000 F300.00
G2 X0.000 Y101.500 Z-1.000 I1.500 J-0.000 K0.000 F300.00
G1 X180.000 Y101.500 Z-1.000 F300.00
G2 X181.061 Y101.061 Z-1.000 I-0.000 J-1.500 K0.000 F300.00
G1 X181.061 Y101.061 Z-2.000 F30.00
G2 X181.500 Y100.000 Z-2.000 I-1.061 J-1.061 K0.000 F300.00
G1 X181.500 Y0.000 Z-2.000 F300.00
G2 X180.000 Y-1.500 Z-2.000 I-1.500 J0.000 K0.000 F300.00
G1 X0.000 Y-1.500 Z-2.000 F300.00
G2 X-1.500 Y0.000 Z-2.000 I0.000 J1.500 K0.000 F300.00
G1 X-1.500 Y100.000 Z-2.000 F300.00
G2 X0.000 Y101.500 Z-2.000 I1.500 J-0.000 K0.000 F300.00
G1 X180.000 Y101.500 Z-2.000 F300.00
G2 X181.061 Y101.061 Z-2.000 I-0.000 J-1.500 K0.000 F300.00
G1 X181.061 Y101.061 Z-3.000 F30.00
G2 X181.500 Y100.000 Z-3.000 I-1.061 J-1.061 K0.000 F300.00
G1 X181.500 Y0.000 Z-3.000 F300.00
G2 X180.000 Y-1.500 Z-3.000 I-1.500 J0.000 K0.000 F300.00
G1 X0.000 Y-1.500 Z-3.000 F300.00
G2 X-1.500 Y0.000 Z-3.000 I0.000 J1.500 K0.000 F300.00
G1 X-1.500 Y100.000 Z-3.000 F300.00
G2 X0.000 Y101.500 Z-3.000 I1.500 J-0.000 K0.000 F300.00
G1 X180.000 Y101.500 Z-3.000 F300.00
G2 X181.061 Y101.061 Z-3.000 I-0.000 J-1.500 K0.000 F300.00
G0 Z6.000
G0 Z6.000
(finish operation: Profile)
(begin operation: Drilling)
(Path: Drilling)
(inactive operation)
(finish operation: Drilling)
(begin operation: Helix)
(Path: Helix)
(inactive operation)
(finish operation: Helix)
(begin postamble)
M5
G17 G90
M2
