(Exported by FreeCAD)
(Post Processor: grbl_MIHO_post)
(Output Time:2021-05-03 18:40:18.753540)
(begin preamble)
G17 G90
G21
(begin operation: Fixture)
(Path: Fixture)
G54
(finish operation: Fixture)
(begin operation: Profile)
(Path: Profile)
(inactive operation)
(finish operation: Profile)
(begin operation: TC: 3mm_endmill)
(Path: TC: 3mm_endmill)
(TC: 3mm_endmill)
(begin toolchange)
(M6 T1.0)
M3 S9000.000
(finish operation: TC: 3mm_endmill)
(begin operation: Drilling)
(Path: Drilling)
(Drilling)
(Begin Drilling)
G0 Z6.000
G90
(MIHOG99)
(G83 X15.000 Y4.000 Z-3.000 F30.00 Q1.000 R2.000)
G0 X15.000 Y4.000
G0 Z6.000
G1 Z1.000 F30.00
G0 Z2.000
G1 Z0.000 F30.00
G0 Z2.000
G1 Z-1.000 F30.00
G0 Z2.000
G1 Z-2.000 F30.00
G0 Z2.000
G1 Z-3.000 F30.00
G0 Z2.000
(G80)
G0 Z4.000
(G83 X35.000 Y4.000 Z-3.000 F30.00 Q1.000 R2.000)
G0 X35.000 Y4.000
G0 Z4.000
G1 Z1.000 F30.00
G0 Z2.000
G1 Z0.000 F30.00
G0 Z2.000
G1 Z-1.000 F30.00
G0 Z2.000
G1 Z-2.000 F30.00
G0 Z2.000
G1 Z-3.000 F30.00
G0 Z2.000
(G80)
G0 Z4.000
(G83 X55.000 Y4.000 Z-3.000 F30.00 Q1.000 R2.000)
G0 X55.000 Y4.000
G0 Z4.000
G1 Z1.000 F30.00
G0 Z2.000
G1 Z0.000 F30.00
G0 Z2.000
G1 Z-1.000 F30.00
G0 Z2.000
G1 Z-2.000 F30.00
G0 Z2.000
G1 Z-3.000 F30.00
G0 Z2.000
(G80)
G0 Z4.000
(G83 X90.000 Y4.000 Z-3.000 F30.00 Q1.000 R2.000)
G0 X90.000 Y4.000
G0 Z4.000
G1 Z1.000 F30.00
G0 Z2.000
G1 Z0.000 F30.00
G0 Z2.000
G1 Z-1.000 F30.00
G0 Z2.000
G1 Z-2.000 F30.00
G0 Z2.000
G1 Z-3.000 F30.00
G0 Z2.000
(G80)
G0 Z4.000
(G83 X125.000 Y4.000 Z-3.000 F30.00 Q1.000 R2.000)
G0 X125.000 Y4.000
G0 Z4.000
G1 Z1.000 F30.00
G0 Z2.000
G1 Z0.000 F30.00
G0 Z2.000
G1 Z-1.000 F30.00
G0 Z2.000
G1 Z-2.000 F30.00
G0 Z2.000
G1 Z-3.000 F30.00
G0 Z2.000
(G80)
G0 Z4.000
(G83 X125.000 Y96.000 Z-3.000 F30.00 Q1.000 R2.000)
G0 X125.000 Y96.000
G0 Z4.000
G1 Z1.000 F30.00
G0 Z2.000
G1 Z0.000 F30.00
G0 Z2.000
G1 Z-1.000 F30.00
G0 Z2.000
G1 Z-2.000 F30.00
G0 Z2.000
G1 Z-3.000 F30.00
G0 Z2.000
(G80)
G0 Z4.000
(G83 X90.000 Y96.000 Z-3.000 F30.00 Q1.000 R2.000)
G0 X90.000 Y96.000
G0 Z4.000
G1 Z1.000 F30.00
G0 Z2.000
G1 Z0.000 F30.00
G0 Z2.000
G1 Z-1.000 F30.00
G0 Z2.000
G1 Z-2.000 F30.00
G0 Z2.000
G1 Z-3.000 F30.00
G0 Z2.000
(G80)
G0 Z4.000
(G83 X55.000 Y96.000 Z-3.000 F30.00 Q1.000 R2.000)
G0 X55.000 Y96.000
G0 Z4.000
G1 Z1.000 F30.00
G0 Z2.000
G1 Z0.000 F30.00
G0 Z2.000
G1 Z-1.000 F30.00
G0 Z2.000
G1 Z-2.000 F30.00
G0 Z2.000
G1 Z-3.000 F30.00
G0 Z2.000
(G80)
G0 Z4.000
(G83 X35.000 Y96.000 Z-3.000 F30.00 Q1.000 R2.000)
G0 X35.000 Y96.000
G0 Z4.000
G1 Z1.000 F30.00
G0 Z2.000
G1 Z0.000 F30.00
G0 Z2.000
G1 Z-1.000 F30.00
G0 Z2.000
G1 Z-2.000 F30.00
G0 Z2.000
G1 Z-3.000 F30.00
G0 Z2.000
(G80)
G0 Z4.000
(G83 X15.000 Y96.000 Z-3.000 F30.00 Q1.000 R2.000)
G0 X15.000 Y96.000
G0 Z4.000
G1 Z1.000 F30.00
G0 Z2.000
G1 Z0.000 F30.00
G0 Z2.000
G1 Z-1.000 F30.00
G0 Z2.000
G1 Z-2.000 F30.00
G0 Z2.000
G1 Z-3.000 F30.00
G0 Z2.000
(G80)
G0 Z4.000
G0 Z6.000
(finish operation: Drilling)
(begin operation: Helix)
(Path: Helix)
(inactive operation)
(finish operation: Helix)
(begin postamble)
M5
G17 G90
M2
